symbols/web/compass_calibration/materialsymbolsrounded/compass_calibration_20px.svg

<svg xmlns="http://www.w3.org/2000/svg" height="20" width="20"><path d="M10 18.333q-1.729 0-2.969-1.239-1.239-1.24-1.239-2.969 0-1.729 1.239-2.969Q8.271 9.917 10 9.917q1.729 0 2.969 1.239 1.239 1.24 1.239 2.969 0 1.729-1.239 2.969-1.24 1.239-2.969 1.239Zm0-1.75q1 0 1.729-.729.729-.729.729-1.729t-.729-1.729Q11 11.667 10 11.667t-1.729.729q-.729.729-.729 1.729t.729 1.729q.729.729 1.729.729Zm-4.708-7-3-3q-.271-.271-.271-.635 0-.365.271-.594 1.604-1.396 3.583-2.125Q7.854 2.5 10 2.5t4.125.729q1.979.729 3.583 2.125.271.229.271.594 0 .364-.271.635l-3 3q-.25.25-.614.261-.365.01-.656-.219-.73-.583-1.605-.896-.875-.312-1.833-.312t-1.833.312q-.875.313-1.605.896-.291.229-.656.219-.364-.011-.614-.261Zm.75-1.729q.896-.583 1.896-.885 1-.302 2.062-.302 1.062 0 2.052.302t1.906.885l1.792-1.792q-1.271-.895-2.729-1.354Q11.562 4.25 10 4.25q-1.562 0-3.021.458-1.458.459-2.729 1.354ZM10 6.667Zm0 7.458Z"/></svg>

<svg xmlns="http://www.w3.org/2000/svg" height="20" width="20"><path d="M10 18.333Q8.271 18.333 7.031 17.094Q5.792 15.854 5.792 14.125Q5.792 12.396 7.031 11.156Q8.271 9.917 10 9.917Q11.729 9.917 12.969 11.156Q14.208 12.396 14.208 14.125Q14.208 15.854 12.969 17.094Q11.729 18.333 10 18.333ZM10 16.583Q11 16.583 11.729 15.854Q12.458 15.125 12.458 14.125Q12.458 13.125 11.729 12.396Q11 11.667 10 11.667Q9 11.667 8.271 12.396Q7.542 13.125 7.542 14.125Q7.542 15.125 8.271 15.854Q9 16.583 10 16.583ZM5.292 9.583 2.292 6.583Q2.021 6.312 2.021 5.948Q2.021 5.583 2.292 5.354Q3.896 3.958 5.875 3.229Q7.854 2.5 10 2.5Q12.146 2.5 14.125 3.229Q16.104 3.958 17.708 5.354Q17.979 5.583 17.979 5.948Q17.979 6.312 17.708 6.583L14.708 9.583Q14.458 9.833 14.094 9.844Q13.729 9.854 13.438 9.625Q12.708 9.042 11.833 8.729Q10.958 8.417 10 8.417Q9.042 8.417 8.167 8.729Q7.292 9.042 6.562 9.625Q6.271 9.854 5.906 9.844Q5.542 9.833 5.292 9.583ZM6.042 7.854Q6.938 7.271 7.938 6.969Q8.938 6.667 10 6.667Q11.062 6.667 12.052 6.969Q13.042 7.271 13.958 7.854L15.75 6.062Q14.479 5.167 13.021 4.708Q11.562 4.25 10 4.25Q8.438 4.25 6.979 4.708Q5.521 5.167 4.25 6.062ZM10 6.667Q10 6.667 10 6.667Q10 6.667 10 6.667Q10 6.667 10 6.667Q10 6.667 10 6.667Q10 6.667 10 6.667Q10 6.667 10 6.667Q10 6.667 10 6.667Q10 6.667 10 6.667ZM10 14.125Q10 14.125 10 14.125Q10 14.125 10 14.125Q10 14.125 10 14.125Q10 14.125 10 14.125Q10 14.125 10 14.125Q10 14.125 10 14.125Q10 14.125 10 14.125Q10 14.125 10 14.125Z"/></svg>
